X:1
T:Liliburlero
M:6/8
L:1/8
N:as played for MOTley Morris
K:G Major
G>AG B2 B | A>BA c2 c | B<dG c2B | A>GF G3 :| g2 f g2 d | d>e=f e2 d |\
d>e^f g>fe | d>cB A2 d | e>dc B>cd | e>dc B2 d | B<dG c2 B | A>GF G3 |]
